X: 1
T: Pincushion Polka
M: 2/4
Z: 2005 John Chambers <jc@trillian.mit.edu>
L: 1/16
K: F
"A"\
|::: "F"[AF][BG][c2A2] [cA][dB][c2A2] \
| [f2c2][A2F2] [c3A3][cA] \
|1,3 "C7"[d2B2][G2E2] [B3G3][BG] \
| "F"[c2A2][F2C2] [A4F4] \
:|2,4 "Bb"[d2B2][G2D2] "C7"[B2E2][E2C2] \
| "F"[F2A,2][A2C2] [F4A,4] :|
K: C
"B"\
|: "G7"[G2D2][G2D2] [f3d3][fd] \
| "C"[e2c2][e2c2] [c4G4] \
| "G7"[dB][ec][f2d2] [G2F2][B2F2] \
|1,3 "C"[c2G2][e2c2] [g4e4] \
:|2,4 "C"[d2F2][c2E2] [c4E4] :|
K: F
"A"
|: "F"[AF][BG][c2A2] [cA][dB][c2A2] \
| [f2c2][A2F2] [c3A3][cA] \
|1 "C7"[d2B2][G2E2] [B3G3][BG] \
| "F"[c2A2][F2C2] [A4F4] \
:|2 "Bb"[d2B2][G2D2] "C7"[B2E2][E2C2] \
| "F"[F2A,2][A2C2] "fine"[F4A,4] :|
K: Bb
"C"\
|::: "Bb"[F2D2][B2F2] [B2F2][d2B2] \
| "F7"[ec][fd][ec][dB] [cA][dB][e2c2] \
| "F7"[F2C2][c2F2] [c2A2][dF][cE] \
:|1,3 "Bb"[B2D2][g2e2] [f4d4] \
:|2,4 "Bb"[B2D2][B2D2] [B4D4] :|
